; generated by Slic3r 1.2.9 on 2017-07-03 at 11:48:20

; external perimeters extrusion width = 0.65mm
; perimeters extrusion width = 0.70mm
; infill extrusion width = 0.85mm
; solid infill extrusion width = 0.85mm
; top infill extrusion width = 0.65mm

M107
M190 S100 ; set bed temperature
M104 S245 ; set temperature
G21        ;metric values
G90        ;absolute positioning
M82        ;set extruder to absolute mode
M107       ;start with the fan off
G28 X0 Y0  ;move X/Y to min endstops
G28 Z0     ;move Z to min endstops
G1 Z15.0 F{travel_speed} ;move the platform down 15mm
G92 E0                  ;zero the extruded length
G1 F200 E3              ;extrude 3mm of feed stock
G92 E0                  ;zero the extruded length again
G1 F{travel_speed}
;Put printing message on LCD screen
M117 Printing...
M109 S245 ; wait for temperature to be reached
G21 ; set units to millimeters
G90 ; use absolute coordinates
M82 ; use absolute distances for extrusion
G92 E0
G1 Z0.195 F9000.000
G1 E-5.50000 F3000.00000
G92 E0
G1 X30.632 Y76.283 F9000.000
G1 E5.50000 F3000.00000
G1 X32.824 Y75.729 E5.63897 F1920.000
G1 X161.014 Y65.468 E13.54337
G1 X163.321 Y65.682 E13.68575
G1 X165.420 Y66.662 E13.82814 F1920.000
G1 X167.065 Y68.293 E13.97053
G1 X167.904 Y69.893 E14.08158
G1 X169.511 Y74.309 E14.37040
G1 X169.875 Y77.384 E14.56076
G1 X165.111 Y119.230 E17.14939
G1 X164.249 Y121.844 E17.31860
G1 X161.749 Y126.174 E17.62593
G1 X160.264 Y127.952 E17.76831
G1 X158.266 Y129.125 E17.91070
G1 X154.878 Y129.476 E18.12007
G1 X108.095 Y122.344 E21.02877
G1 X107.364 Y122.191 E21.07465
G1 X30.090 Y101.485 E25.99182
G1 X27.989 Y100.511 E26.13421
G1 X26.339 Y98.884 E26.27660
G1 X25.336 Y96.796 E26.41899
G1 X25.131 Y94.139 E26.58277
G1 X26.654 Y81.647 E27.35629
G1 X27.325 Y79.430 E27.49868
G1 X28.705 Y77.569 E27.64107
G1 X30.557 Y76.333 E27.77792
G1 E22.27792 F3000.00000
G92 E0
G1 X113.004 Y104.178 F9000.000
G1 E5.50000 F3000.00000
G1 X113.398 Y104.801 E5.54526 F1920.000
G1 X113.737 Y105.447 E5.59010
G1 X113.866 Y105.750 E5.61035
G1 X114.098 Y106.437 E5.65496
G1 X114.179 Y106.759 E5.67532
G1 X114.307 Y107.558 E5.72506
G1 X114.593 Y110.833 E5.92715
G1 X114.530 Y111.560 E5.97201
G1 X112.694 Y118.411 E6.40795
G1 X109.703 Y120.138 E6.62025
G1 X29.092 Y98.538 E11.74974
G1 X27.365 Y95.547 E11.96207
G1 X29.180 Y88.772 E12.39318
G1 X29.193 Y88.673 E12.39929
G1 X29.193 Y80.738 E12.88701
G1 X31.636 Y78.295 E13.09934
G1 X132.560 Y78.295 E19.30263
G1 X132.691 Y78.272 E19.31078
G1 X161.751 Y67.696 E21.21156
G1 X164.881 Y69.155 E21.42388
G1 X167.670 Y76.817 E21.92500
G1 X166.210 Y79.947 E22.13732
G1 X136.996 Y90.580 E24.04815
G1 X136.758 Y90.820 E24.06896
G1 X136.547 Y91.411 E24.10753
G1 X136.407 Y91.721 E24.12838
G1 X135.970 Y92.512 E24.18394
G1 X135.782 Y92.795 E24.20481
G1 X135.221 Y93.507 E24.26054
G1 X134.991 Y93.754 E24.28130
G1 X134.323 Y94.367 E24.33703
G1 X134.056 Y94.573 E24.35775
G1 X133.560 Y94.898 E24.39418
G1 X133.410 Y95.457 E24.42978
G1 X133.677 Y95.985 E24.46610
G1 X133.805 Y96.299 E24.48699
G1 X134.078 Y97.163 E24.54268
G1 X134.153 Y97.493 E24.56347
G1 X134.283 Y98.393 E24.61935
G1 X134.304 Y98.728 E24.63998
G1 X134.290 Y99.490 E24.68682
G1 X134.494 Y99.850 E24.71225
G1 X161.977 Y115.718 E26.66283
G1 X162.871 Y119.054 E26.87516
G1 X158.644 Y126.376 E27.39479
G1 X155.307 Y127.270 E27.60713
G1 X113.827 Y103.322 E30.55109
G1 X113.067 Y104.113 E30.61855
G1 X112.372 Y104.652 F9000.000
G1 X112.741 Y105.180 E30.65816 F1920.000
G1 X113.052 Y105.772 E30.69928
G1 X113.158 Y106.020 E30.71585
G1 X113.370 Y106.651 E30.75677
G1 X113.436 Y106.914 E30.77343
G1 X113.553 Y107.639 E30.81856
G1 X113.832 Y110.833 E31.01564
G1 X113.780 Y111.428 E31.05235
G1 X112.043 Y117.911 E31.46490
G1 X109.595 Y119.324 E31.63861
G1 X29.591 Y97.887 E36.72949
G1 X28.178 Y95.440 E36.90321
G1 X29.938 Y88.871 E37.32115
G1 X29.951 Y88.773 E37.32726
G1 X29.951 Y81.052 E37.80182
G1 X31.950 Y79.054 E37.97554
G1 X132.694 Y79.054 E44.16775
G1 X132.825 Y79.031 E44.17591
G1 X161.715 Y68.515 E46.06559
G1 X164.276 Y69.710 E46.23931 F1920.000
G1 X166.359 Y75.431 E46.61355
G1 X166.850 Y76.781 E46.70183
G1 X165.655 Y79.342 E46.87554
G1 X136.402 Y89.990 E48.78897
G1 X136.163 Y90.230 E48.80979
G1 X135.843 Y91.128 E48.86839
G1 X135.729 Y91.381 E48.88545
G1 X135.321 Y92.118 E48.93725
G1 X135.168 Y92.350 E48.95432
G1 X134.645 Y93.013 E49.00625
G1 X134.457 Y93.216 E49.02323
G1 X133.833 Y93.787 E49.07517
G1 X133.616 Y93.956 E49.09212
G1 X132.910 Y94.417 E49.14392
G1 X132.578 Y94.598 E49.16716
G1 X132.410 Y95.227 E49.20717
G1 X132.607 Y95.548 E49.23031
G1 X132.987 Y96.300 E49.28210
G1 X133.092 Y96.557 E49.29919
G1 X133.346 Y97.362 E49.35109
G1 X133.407 Y97.632 E49.36810
G1 X133.508 Y98.328 E49.41134
G1 X133.546 Y98.744 E49.43701
G1 X133.530 Y99.583 E49.48856
G1 X133.501 Y99.873 E49.50649
G1 X133.705 Y100.271 E49.53394
G1 X161.326 Y116.217 E51.49426
G1 X162.057 Y118.947 E51.66798
G1 X158.144 Y125.725 E52.14900
G1 X155.414 Y126.457 E52.32274
G1 X113.176 Y102.071 E55.32050
G1 X112.524 Y102.294 E55.36287
G1 X112.393 Y102.616 E55.38424
G1 X112.091 Y103.213 E55.42535
G1 X111.861 Y103.590 E55.45249
G1 X111.905 Y104.085 E55.48308
G1 X112.318 Y104.580 E55.52267
G1 X111.765 Y105.106 F9000.000
G1 X112.083 Y105.559 E55.55674 F1920.000
G1 X112.366 Y106.098 E55.59413
G1 X112.642 Y106.865 E55.64423
G1 X112.694 Y107.069 E55.65719
G1 X112.799 Y107.720 E55.69769
G1 X113.071 Y110.833 E55.88978
G1 X113.031 Y111.296 E55.91833
G1 X111.392 Y117.412 E56.30750
G1 X109.488 Y118.511 E56.44260
G1 X30.091 Y97.236 E61.49488
G1 X28.992 Y95.332 E61.63000
G1 X30.696 Y88.971 E62.03477
G1 X30.709 Y88.873 E62.04088
G1 X30.709 Y81.366 E62.50228
G1 X32.264 Y79.812 E62.63739
G1 X132.828 Y79.812 E68.81851
G1 X132.958 Y79.789 E68.82667
G1 X161.679 Y69.335 E70.70527
G1 X163.671 Y70.264 E70.84038
G1 X166.030 Y76.745 E71.26429 F1920.000
G1 X165.101 Y78.737 E71.39940
G1 X135.765 Y89.415 E73.31825
G1 X135.514 Y89.688 E73.34105
G1 X135.384 Y90.159 E73.37107
G1 X135.139 Y90.844 E73.41580
G1 X135.050 Y91.041 E73.42907
G1 X134.672 Y91.725 E73.47710
G1 X134.553 Y91.905 E73.49037
G1 X134.068 Y92.520 E73.53851
G1 X133.922 Y92.678 E73.55172
G1 X133.426 Y93.131 E73.59302
G1 X133.175 Y93.338 E73.61303
G1 X132.521 Y93.766 E73.66106
G1 X132.332 Y93.869 E73.67431
G1 X131.454 Y94.258 E73.73334
G1 X131.266 Y94.958 E73.77790
G1 X131.831 Y95.733 E73.83682
G1 X131.944 Y95.917 E73.85012
G1 X132.296 Y96.614 E73.89815
G1 X132.378 Y96.815 E73.91144
G1 X132.614 Y97.561 E73.95955
G1 X132.662 Y97.771 E73.97278
G1 X132.758 Y98.437 E74.01412
G1 X132.787 Y98.761 E74.03412
G1 X132.773 Y99.539 E74.08196
G1 X132.665 Y100.226 E74.12468
G1 X132.867 Y100.662 E74.15423
G1 X160.675 Y116.717 E76.12783
G1 X161.244 Y118.840 E76.26295
G1 X157.645 Y125.074 E76.70538
G1 X155.521 Y125.643 E76.84050
G1 X112.746 Y100.946 E79.87644
G1 X112.069 Y101.208 E79.92104
G1 X111.783 Y102.104 E79.97882
G1 X111.702 Y102.301 E79.99192
G1 X111.319 Y103.023 E80.04219
G1 X110.870 Y103.643 E80.08919
G1 X110.920 Y104.206 E80.12393
G1 X111.470 Y104.739 E80.17104
G1 X111.711 Y105.034 E80.19442
G1 X111.158 Y105.560 F9000.000
G1 X111.426 Y105.939 E80.22296 F1920.000
G1 X111.681 Y106.424 E80.25663
G1 X111.951 Y107.225 E80.30859
G1 X112.045 Y107.801 E80.34447
G1 X112.310 Y110.833 E80.53156
G1 X112.281 Y111.164 E80.55195
G1 X110.741 Y116.912 E80.91774
G1 X109.381 Y117.697 E81.01424
G1 X30.591 Y96.585 E86.02792
G1 X29.805 Y95.225 E86.12443
G1 X31.570 Y88.640 E86.54346
G1 X31.467 Y88.258 E86.56781
G1 X31.467 Y81.680 E86.97208
G1 X32.578 Y80.570 E87.06860
G1 X132.961 Y80.570 E93.23863
G1 X133.092 Y80.547 E93.24679
G1 X161.643 Y70.155 E95.11430
G1 X163.066 Y70.819 E95.21081 F1920.000
G1 X164.934 Y75.950 E95.54645
G1 X165.210 Y76.709 E95.59611
G1 X164.547 Y78.132 E95.69262
G1 X135.135 Y88.837 E97.61643
G1 X134.884 Y89.111 E97.63923
G1 X134.664 Y89.919 E97.69068
G1 X134.372 Y90.701 E97.74203
G1 X133.938 Y91.460 E97.79576
G1 X133.492 Y92.027 E97.84009
G1 X132.855 Y92.626 E97.89384
G1 X131.996 Y93.188 E97.95693
G1 X131.192 Y93.531 E98.01066
G1 X130.103 Y93.815 E98.07983
G1 X129.875 Y94.667 E98.13405
G1 X130.776 Y95.573 E98.21262
G1 X131.281 Y96.287 E98.26633
G1 X131.664 Y97.072 E98.32006
G1 X131.916 Y97.910 E98.37380
G1 X132.019 Y98.625 E98.41821
G1 X132.000 Y99.650 E98.48120
G1 X131.817 Y100.591 E98.54012
G1 X132.016 Y101.046 E98.57070
G1 X160.024 Y117.216 E100.55848
G1 X160.430 Y118.733 E100.65500
G1 X157.145 Y124.423 E101.05882
G1 X155.628 Y124.829 E101.15534
G1 X112.131 Y99.716 E104.24251
G1 X111.389 Y100.110 E104.29414
G1 X111.351 Y100.640 E104.32681
G1 X111.269 Y101.179 E104.36034
G1 X111.012 Y101.986 E104.41239
G1 X110.687 Y102.603 E104.45525
G1 X110.365 Y103.048 E104.48898
G1 X109.761 Y103.669 E104.54224
G1 X109.822 Y104.373 E104.58568
G1 X110.527 Y104.881 E104.63906
G1 X110.920 Y105.262 E104.67276
G1 X111.104 Y105.488 E104.69063
G1 E99.19063 F3000.00000
G92 E0
G1 X110.500 Y98.841 F9000.000
G1 E5.50000 F3000.00000
G1 X110.598 Y99.958 E5.56886 F1920.000
G1 X110.604 Y100.466 E5.60010
G1 X110.504 Y101.125 E5.64107
G1 X110.322 Y101.671 E5.67648
G1 X110.102 Y102.106 E5.70642
G1 X109.797 Y102.539 E5.73897
G1 X109.367 Y102.990 E5.77728
G1 X108.906 Y103.333 E5.81257
G1 X108.327 Y103.634 E5.85268
G1 X108.417 Y104.656 E5.91572
G1 X109.038 Y104.851 E5.95575
G1 X109.475 Y105.064 E5.98564
G1 X109.951 Y105.389 E6.02102
G1 X110.430 Y105.853 E6.06203
G1 X110.769 Y106.318 E6.09743
G1 X110.996 Y106.749 E6.12736
G1 X111.186 Y107.292 E6.16275
G1 X111.285 Y107.837 E6.19677
G1 X111.549 Y110.833 E6.38164
G1 X111.532 Y111.032 E6.39388
G1 X110.090 Y116.412 E6.73627
G1 X109.274 Y116.883 E6.79418
G1 X31.090 Y95.934 E11.76925
G1 X30.619 Y95.118 E11.82716
G1 X32.157 Y89.379 E12.19239
G1 X32.583 Y89.133 E12.22262
G1 X32.681 Y88.391 E12.26858
G1 X32.226 Y87.936 E12.30813
G1 X32.226 Y81.994 E12.67336
G1 X32.892 Y81.328 E12.73127
G1 X133.095 Y81.328 E18.89022
G1 X133.226 Y81.305 E18.89837
G1 X161.607 Y70.975 E20.75480
G1 X162.461 Y71.373 E20.81271
G1 X164.390 Y76.673 E21.15940
G1 X163.992 Y77.527 E21.21731
G1 X134.505 Y88.260 E23.14607
G1 X134.254 Y88.533 E23.16887
G1 X133.959 Y89.634 E23.23891
G1 X133.693 Y90.361 E23.28650
G1 X133.324 Y91.015 E23.33267
G1 X132.853 Y91.601 E23.37886
G1 X132.366 Y92.046 E23.41940
G1 X131.742 Y92.463 E23.46553
G1 X131.058 Y92.775 E23.51173
G1 X130.243 Y92.987 E23.56353
G1 X129.586 Y93.048 E23.60404
G1 X129.221 Y93.053 E23.62652
G1 X128.818 Y93.365 E23.65784
G1 X128.537 Y94.413 E23.72455
G1 X128.730 Y94.886 E23.75588
G1 X129.044 Y95.072 E23.77835
G1 X129.582 Y95.453 E23.81886
G1 X130.182 Y96.045 E23.87067
G1 X130.618 Y96.656 E23.91684
G1 X130.951 Y97.330 E23.96301
G1 X131.170 Y98.049 E24.00920
G1 X131.270 Y98.794 E24.05539
G1 X131.248 Y99.544 E24.10151
G1 X131.124 Y100.215 E24.14346
G1 X130.931 Y100.933 E24.18919
G1 X131.128 Y101.409 E24.22083
G1 X159.373 Y117.716 E26.22542
G1 X159.617 Y118.626 E26.28333
G1 X156.646 Y123.772 E26.64855
G1 X155.736 Y124.016 E26.70647
G1 X111.276 Y98.347 E29.86190
G1 X110.576 Y98.793 E29.91292
G1 E24.41292 F3000.00000
G92 E0
G1 X110.593 Y89.791 F9000.000
G1 E5.50000 F3000.00000
G1 X83.599 Y102.378 E7.33069 F1920.000
G1 X83.333 Y102.401 E7.34713
G1 X36.755 Y89.921 E10.31101
G1 X36.928 Y88.602 E10.39274
G1 X110.329 Y88.602 E14.90432
G1 X110.573 Y89.703 E14.97359
G1 E9.47359 F3000.00000
G92 E0
G1 X107.173 Y90.549 F9000.000
G1 E5.50000 F3000.00000
G1 X83.529 Y101.574 E7.10354 F1920.000
G1 X83.262 Y101.598 E7.11997
G1 X42.513 Y90.679 E9.71293
G1 X42.687 Y89.361 E9.79467
G1 X106.910 Y89.361 E13.74209
G1 X107.154 Y90.461 E13.81136
G1 E8.31136 F3000.00000
G92 E0
G1 X103.753 Y91.307 F9000.000
G1 E5.50000 F3000.00000
G1 X83.458 Y100.771 E6.87638 F1920.000
G1 X83.192 Y100.794 E6.89281
G1 X48.272 Y91.437 E9.11486
G1 X48.446 Y90.119 E9.19659
G1 X103.490 Y90.119 E12.57986
G1 X103.734 Y91.219 E12.64912
G1 E7.14912 F3000.00000
G92 E0
G1 X100.333 Y92.065 F9000.000
G1 E5.50000 F3000.00000
G1 X83.388 Y99.967 E6.64922 F1920.000
G1 X83.122 Y99.990 E6.66565
G1 X54.031 Y92.195 E8.51678
G1 X54.205 Y90.877 E8.59851
G1 X100.070 Y90.877 E11.41762
G1 X100.314 Y91.977 E11.48689
G1 E5.98689 F3000.00000
G92 E0
G1 X96.914 Y92.823 F9000.000
G1 E5.50000 F3000.00000
G1 X83.318 Y99.163 E6.42206 F1920.000
G1 X83.051 Y99.186 E6.43850
G1 X59.790 Y92.953 E7.91870
G1 X59.963 Y91.635 E8.00044
G1 X96.650 Y91.635 E10.25539
G1 X96.894 Y92.735 E10.32466
G1 E4.82466 F3000.00000
G92 E0
G1 X109.641 Y97.727 F9000.000
G1 E5.50000 F3000.00000
G1 X109.841 Y100.009 E5.64079 F1920.000
G1 X109.845 Y100.442 E5.66744
G1 X109.772 Y100.923 E5.69733
G1 X109.631 Y101.357 E5.72536
G1 X109.439 Y101.737 E5.75157
G1 X109.183 Y102.094 E5.77857
G1 X108.852 Y102.433 E5.80765
G1 X108.485 Y102.702 E5.83564
G1 X108.079 Y102.910 E5.86368
G1 X107.435 Y103.119 E5.90532
G1 X107.140 Y103.561 E5.93798
G1 X107.260 Y104.934 E6.02264
G1 X107.627 Y105.318 E6.05530
G1 X108.268 Y105.406 E6.09507
G1 X108.706 Y105.535 E6.12311
G1 X109.117 Y105.733 E6.15115
G1 X109.515 Y106.012 E6.18102
G1 X109.841 Y106.331 E6.20907
G1 X110.112 Y106.698 E6.23710
G1 X110.322 Y107.103 E6.26515
G1 X110.458 Y107.506 E6.29133
G1 X110.535 Y107.948 E6.31891
G1 X110.782 Y110.899 E6.50094
G1 X109.439 Y115.913 E6.81995
G1 X109.167 Y116.070 E6.83925
G1 X31.590 Y95.283 E11.77572
G1 X31.433 Y95.011 E11.79503
G1 X32.808 Y89.878 E12.12165
G1 X33.080 Y89.721 E12.14095
G1 X83.403 Y103.205 E15.34315
G1 X83.669 Y103.182 E15.35958
G1 X110.689 Y90.582 E17.19200
G1 X110.874 Y90.591 E17.20340
G1 X112.226 Y91.371 E17.29933
G1 X112.984 Y90.933 E17.35314
G1 X112.984 Y88.288 E17.51570
G1 X112.540 Y87.844 E17.55430
G1 X33.206 Y87.844 E22.43053
G1 X32.984 Y87.622 E22.44983
G1 X32.984 Y82.308 E22.77646
G1 X33.206 Y82.086 E22.79576
G1 X133.229 Y82.086 E28.94362
G1 X133.359 Y82.063 E28.95178
G1 X161.572 Y71.795 E30.79712
G1 X161.856 Y71.927 E30.81642
G1 X163.570 Y76.638 E31.12452
G1 X163.438 Y76.922 E31.14382
G1 X133.874 Y87.682 E33.07753
G1 X133.624 Y87.956 E33.10034
G1 X133.231 Y89.423 E33.19370
G1 X133.015 Y90.022 E33.23279
G1 X132.709 Y90.570 E33.27142
G1 X132.339 Y91.040 E33.30816
G1 X131.853 Y91.485 E33.34866
G1 X131.326 Y91.827 E33.38728
G1 X130.779 Y92.069 E33.42402
G1 X130.172 Y92.230 E33.46264
G1 X129.547 Y92.290 E33.50126
G1 X128.695 Y92.234 E33.55373
G1 X128.252 Y92.550 E33.58718
G1 X127.639 Y94.836 E33.73268
G1 X127.865 Y95.332 E33.76613
G1 X128.631 Y95.708 E33.81860
G1 X129.118 Y96.054 E33.85533
G1 X129.567 Y96.493 E33.89395
G1 X129.956 Y97.026 E33.93446
G1 X130.237 Y97.588 E33.97308
G1 X130.424 Y98.188 E34.01170
G1 X130.511 Y98.810 E34.05033
G1 X130.497 Y99.438 E34.08894
G1 X130.391 Y100.018 E34.12520
G1 X130.048 Y101.299 E34.20669
G1 X130.245 Y101.775 E34.23832
G1 X158.722 Y118.215 E36.25937
G1 X158.803 Y118.519 E36.27868
G1 X156.146 Y123.121 E36.60530
G1 X155.843 Y123.202 E36.62460
G1 X110.681 Y97.128 E39.82984
G1 X110.311 Y97.112 E39.85265
G1 X109.880 Y97.313 E39.88183
G1 X109.686 Y97.649 E39.90568
G1 E34.40568 F3000.00000
G92 E0
G1 X129.057 Y101.988 F9000.000
G1 E5.50000 F3000.00000
G1 X157.850 Y118.612 E7.54350 F1536.000
G1 X155.750 Y122.249 E7.80165
G1 X110.539 Y96.146 E11.01043
G1 X108.792 Y96.961 E11.12886
G1 X109.063 Y100.053 E11.31968
G1 X109.066 Y100.402 E11.34110
G1 X109.016 Y100.731 E11.36154
G1 X108.915 Y101.047 E11.38197
G1 X108.765 Y101.344 E11.40241
G1 X108.570 Y101.613 E11.42285
G1 X108.336 Y101.847 E11.44318
G1 X108.065 Y102.044 E11.46374
G1 X107.769 Y102.194 E11.48417
G1 X107.241 Y102.363 E11.51825
G1 X107.043 Y102.463 E11.53190
G1 X106.863 Y102.594 E11.54554
G1 X106.706 Y102.751 E11.55919
G1 X106.576 Y102.931 E11.57284
G1 X106.476 Y103.129 E11.58648
